icons/accessibility-inset-16.svg

<svg width="16" height="16" viewBox="0 0 16 16" fill="none" xmlns="http://www.w3.org/2000/svg">
<g clip-path="url(#clip0_8038_72896)">
<path fill-rule="evenodd" clip-rule="evenodd" d="M8 0C3.58172 0 0 3.58172 0 8C0 12.4183 3.58172 16 8 16C12.4183 16 16 12.4183 16 8C16 3.58172 12.4183 0 8 0ZM10 4C10 4.76069 9.57532 5.42219 8.95012 5.76034C9.0652 5.82868 9.17244 5.90911 9.26999 6H12.25C12.6642 6 13 6.33579 13 6.75C13 7.16421 12.6642 7.5 12.25 7.5H9.88822L10.4957 13.1701C10.5399 13.582 10.2418 13.9516 9.8299 13.9957C9.41804 14.0399 9.0484 13.7418 9.00427 13.3299L8.75464 11H7.24537L6.99573 13.3299C6.95161 13.7418 6.58196 14.0399 6.1701 13.9957C5.75825 13.9516 5.46014 13.582 5.50427 13.1701L6.11178 7.5H3.75C3.33579 7.5 3 7.16421 3 6.75C3 6.33579 3.33579 6 3.75 6H6.73001C6.82757 5.90911 6.9348 5.82868 7.04988 5.76035C6.42468 5.42219 6 4.76069 6 4C6 2.89543 6.89543 2 8 2C9.10457 2 10 2.89543 10 4Z" fill="black"/>
</g>
<defs>
<clipPath id="clip0_8038_72896">
<rect width="16" height="16" fill="white"/>
</clipPath>
</defs>
</svg>

<svg xmlns="http://www.w3.org/2000/svg" width="16" height="16" viewBox="0 0 16 16"><path fill-rule="evenodd" d="M8 0a8 8 0 100 16A8 8 0 008 0zm2 4a2 2 0 01-1.05 1.76c.115.069.222.15.32.24h2.98a.75.75 0 010 1.5H9.888l.608 5.67a.75.75 0 11-1.492.16L8.754 11H7.246l-.25 2.33a.75.75 0 11-1.49-.16l.607-5.67H3.75a.75.75 0 010-1.5h2.98a1.87 1.87 0 01.32-.24A2 2 0 1110 4z"/></svg>
